svgs/sharp-light/id-card-clip.svg

<svg xmlns="http://www.w3.org/2000/svg" viewBox="0 0 576 512"><!--! Font Awesome Pro 6.6.0 by @fontawesome - https://fontawesome.com License - https://fontawesome.com/license (Commercial License) Copyright 2024 Fonticons, Inc. --><path d="M320 32l-64 0 0 64 64 0 0-64zM256 0l64 0 32 0 0 32 0 64 0 32-32 0-64 0-32 0 0-32 0-64 0-32 32 0zm64 256a32 32 0 1 0 -64 0 32 32 0 1 0 64 0zm-96 0a64 64 0 1 1 128 0 64 64 0 1 1 -128 0zm7.1 128l-21.3 64L176 448l32-96 160 0 32 96-33.7 0-21.3-64-113.9 0zM32 64l160 0 0 32L32 96l0 384 512 0 0-384L384 96l0-32 160 0 32 0 0 32 0 384 0 32-32 0L32 512 0 512l0-32L0 96 0 64l32 0z"/></svg>

<svg xmlns="http://www.w3.org/2000/svg" viewBox="0 0 576 512"><!--! Font Awesome Pro 6.4.2 by @fontawesome - https://fontawesome.com License - https://fontawesome.com/license (Commercial License) Copyright 2023 Fonticons, Inc. --><path d="M320 32H256V96h64V32zM256 0h64 32V32 96v32H320 256 224V96 32 0h32zm64 256a32 32 0 1 0 -64 0 32 32 0 1 0 64 0zm-96 0a64 64 0 1 1 128 0 64 64 0 1 1 -128 0zm7.1 128l-21.3 64H176l32-96H368l32 96H366.3l-21.3-64H231.1zM32 64H192V96H32V480H544V96H384V64H544h32V96 480v32H544 32 0V480 96 64H32z"/></svg>
